!!!!SEGMENT: pl-kk--kk-i-8--029_anonim--aurora-caelum-purpurat.krn
!!!cenid: 16xx:1170
!!!COM: Anonim
!!!COM-rismid: pe30004985
!!!CDT:
!!!CNT:
!!!OTL: Aurora caelum purpurat
!!!PDT:
!!!AGN: Sacred
!!!SMS-siglum: PL-Kk
!!!SMS-shelfmark: Kk.I.8
!!!SMS-shelfwork: 029 W
!!!SMS-variant:
!!!SMS-altvar:
!!!NIFC-rismid: 1001149132
!!!URL-scan: http://repozytorium.nifc.pl/skany/pl-kk-nut--i-8
!!!ONB-nifc: UWAGA: A (skan 0018), T1 (0031), T2 (0065), B (0088). Następny utwór: Martyres erant apostoli
**kern	**text	**text	**kern	**text	**text	**kern	**text	**text	**kern	**text	**text
*part4	*part4	*part4	*part3	*part3	*part3	*part2	*part2	*part2	*part1	*part1	*part1
*staff4	*staff4	*staff4	*staff3	*staff3	*staff3	*staff2	*staff2	*staff2	*staff1	*staff1	*staff1
*I"Baſsus.	*	*	*I"Tenor 2dus	*	*	*I"Tenor. 1mus	*	*	*I"Alto.	*	*
*I'B.	*	*	*I'T.	*	*	*I'T.	*	*	*I'A.	*	*
*clefF4	*	*	*clefC4	*	*	*clefC1	*	*	*clefC3	*	*
*k[]	*	*	*k[]	*	*	*k[]	*	*	*k[]	*	*
*C:	*	*	*C:	*	*	*C:	*	*	*C:	*	*
*M3/1	*	*	*M3/1	*	*	*M3/1	*	*	*M3/1	*	*
=1	=1	=1	=1	=1	=1	=1	=1	=1	=1	=1	=1
!LO:TX:a:t=De Reſurrechione Domini..	!	!	!LO:TX:a:t=De Reſurrechone Domini.	!	!	!LO:TX:a:t=De Reſurrechone D(omi)ni.	!	!	!LO:TX:a:t=De Reſurrectione D(omi)ni N. I.. C.	!	!
0.C/	1 Au-	2 Rex	1r	.	.	1r	.	.	1r	.	.
.	.	.	1C/	1 Au-	2 Rex	1r	.	.	1r	.	.
.	.	.	2C/	-ro-	il-	1g\	1 au-	2 Rex	1c\	1 Au-	2 Rex
.	.	.	2D/	.	.	.	.	.	.	.	.
=2	=2	=2	=2	=2	=2	=2	=2	=2	=2	=2	=2
1.C/	-ro-	il-	2E/	.	.	2g/	-ro-	il-	2c/	-ro-	il-
.	.	.	2F/	.	.	2f/	.	.	2d\	.	.
.	.	.	2G/	.	.	2e/	.	.	2e\	.	.
2D/	.	.	4A\	.	.	2d/	.	.	2f\	.	.
.	.	.	4B\	.	.	.	.	.	.	.	.
2E\	.	.	2c\	.	.	2c/	.	.	2g\	.	.
2F\	.	.	2c\	-ra	-le	2f/	.	.	2a\	.	.
=3	=3	=3	=3	=3	=3	=3	=3	=3	=3	=3	=3
0G\	.	-le	2B\	cae-	dum	2d/	.	.	1g\	.	.
.	.	.	2A\	.	.	4e/	.	.	.	.	.
.	.	.	.	.	.	4f/	.	.	.	.	.
.	.	.	2B\	.	.	2g/	.	.	1d\	-ra	-le
.	.	.	2c\	.	.	2a\	.	.	.	.	.
1G\	-ra	il-	2d\	.	.	1b\	.	.	2g\	Cae-	il-
.	.	.	2d\	-lu(m)	for-	.	.	.	2f\	.	-le
=4	=4	=4	=4	=4	=4	=4	=4	=4	=4	=4	=4
1.A\	cae-	-le	2c\	pur-	-tiſ-	2a\	-ra	la	1.e\	.	.
.	.	.	2d\	.	.	2b\	Ca-	dum	.	.	.
.	.	.	1.e\	.	.	1cc\	.	.	.	.	.
2B\	.	.	.	.	.	.	.	.	2d\	.	.
1c\	.	dum	.	.	.	0g\	-lu(m)	for-	2e\	.	.
.	.	.	4d\	-pu-	-si-	.	.	.	2f\	.	.
.	.	.	4c\	.	.	.	.	.	.	.	.
=5	=5	=5	=5	=5	=5	=5	=5	=5	=5	=5	=5
1G\	-lu(m)	for-	2d\	-rat	-m(us)	.	.	.	2g\	.	for-
.	.	.	2d\	ae-	de	.	.	.	2g\	-lum	-tiſ-
1.D\	pur-	-tiſ-	1.d\	-ther	Mor-	1.a\	pur-	-tiſ-	1.g\	pur-	-si-
2D/	-pu-	-si-	2c\	re-	-tiſ	2a\	-pu-	-si-	2f#X\	-pu-	.
!	!	!	!LO:LB:g=original	!	!	!	!	!	!	!	!
=6	=6	=6	=6	=6	=6	=6	=6	=6	=6	=6	=6
0GG/	-rat	-m(us)	1B\	-ſul-	in-	1b\	-rat	-m(us)	0g\	-lat	-m(us)
!	!	!	!	!	!	!LO:LB:g=original	!	!	!	!	!
.	.	.	1d\	.	-fer-	1b\	ae-	de	.	.	.
1F#X\	ae-	de	1A\	-tat	-no	2dd\	-ther	mor-	1a\	ae-	de
.	.	.	.	.	.	2dd\	re-	-tis	.	.	.
=7	=7	=7	=7	=7	=7	=7	=7	=7	=7	=7	=7
1.G\	-ther	Mor-	1.B\	ae-	de	1g\	-ſul-	de	1.d\	-ther	mor-
.	.	.	.	.	.	2b\	-tat	Mor-	.	.	.
2E\	re-	-tis	2e\	-ther	Mor-	2g/	ae-	-tis	2g\	re-	-tiſ
1A\	-ſul-	in-	1c\	re-	.	2cc\	-ther	in-	1e\	-ſul-	in-
.	.	.	.	.	.	2b\	re-	.	.	.	.
=8	=8	=8	=8	=8	=8	=8	=8	=8	=8	=8	=8
1.D\	-tat	-fer-	2d\	-ſul-	-tis	2a\	-ſul-	-fer-	1.f\	-tat	-fer-
.	.	.	2e\	.	in-	4b\	.	.	.	.	.
.	.	.	.	.	.	4cc\	.	.	.	.	.
.	.	.	2f\	.	-fer-	1dd\	.	.	.	.	.
2E\	ae-	.	2e\	.	.	.	.	.	2g\	.	.
!LO:LB:g=original	!	!	!	!	!	!	!	!	!	!	!
2F\	-ther	-no	1d\	.	.	2dd\	-tat	-no	2a\	.	.
2G\	.	de	.	.	.	2dd\	re-	in-	4g\	.	.
.	.	.	.	.	.	.	.	.	4f\	.	.
=9	=9	=9	=9	=9	=9	=9	=9	=9	=9	=9	=9
1.A\	re-	Mor-	2c\	.	.	0a\	-sul-	-fer-	2e\	re-	.
.	.	.	2B\	.	.	.	.	.	2d\	.	.
.	.	.	2c\	.	.	.	.	.	2e\	.	.
4G\	-ſul-	-tis	2d\	.	.	.	.	.	2f\	.	.
4F\	.	.	.	.	.	.	.	.	.	.	.
1E\	.	in-	1e\	-tat	.	1b\	-tat	.	1g\	sul-	.
=10	=10	=10	=10	=10	=10	=10	=10	=10	=10	=10	=10
1A\	-tat	-fer-	1e\	la-	-no	1cc\	la-	-no	1a\	-tat	-no
1F\	la-	.	1.d\	-u-	Spe-	1.cc\	-u-	Spe-	1a\	lau-	Spe-
2.G\	-u-	-no	.	.	.	.	.	.	2g\	.	.
.	.	.	2d\	-di-	.	2b\	-di-	.	2g\	-di-	.
4G\	-di-	Spe-	.	.	.	.	.	.	.	.	.
=11	=11	=11	=11	=11	=11	=11	=11	=11	=11	=11	=11
0.C/	-b(us)	-cu	0e\	-b(us)	-cu	0.cc\	-b(us)	-cu	0.g\	-b(us)	cu
.	.	.	1r	.	.	.	.	.	.	.	.
=12	=12	=12	=12	=12	=12	=12	=12	=12	=12	=12	=12
1C/	Mun-	Pa-	0.r	.	.	0.r	.	.	1e\	Mun-	Pa-
1E\	-d(us)	-tru(m)	.	.	.	.	.	.	1g\	-d(us)	-tru(m)
1C/	tri-	Se-	.	.	.	.	.	.	1e\	tri-	Se-
=13	=13	=13	=13-	=13	=13	=13-	=13	=13	=13	=13	=13
0G\	-um-	-na-	1B\	mun-	Pa-	1g\	Mun-	Pa-	0d\	-um-	-na-
.	.	.	1d\	-dus	-tru(m)	1b\	-d(us)	-trum	.	.	.
1G\	-pans	-tum	1B\	tri-	Se-	1g\	tri-	Se-	1d\	-phanſ	-t(um)
=14	=14	=14	=14	=14	=14	=14	=14	=14	=14	=14	=14
*	*ij	*ij	*	*	*	*	*	*	*	*ij	*ij
1D\	Mun-	Pa-	0d\	-um-	-na-	0a\	-um-	-na-	1f\	Mun-	Pa-
1F\	-d(us)	-tru(m)	.	.	.	.	.	.	1a\	-d(us)	-tru(m)
1D\	tri-	Se-	1d\	-phans	-tu(m)	1a\	-phanſ	-tu(m)	1f\	tri-	Se-
!	!	!	!	!	!	!LO:LB:g=original	!	!	!	!	!
=15	=15	=15	=15	=15	=15	=15	=15	=15	=15	=15	=15
*	*	*	*	*ij	*ij	*	*ij	*ij	*	*	*
1A\	-um-	-na-	1c\	mun-	Pa-	1a\	Mun-	Pa-	1e\	-um-	-na-
1A\	-phans	-tum	1e\	-dus	-tru(m)	1cc\	-d(us)	-trum	1e\	-phanſ	-tu(m)
*	*	*	*	*	*	*	*	*	*	*Xij	*Xij
1A\	Mun-	Pa-	1c\	tri-	Se-	1a\	tri-	Se-	2e\	Tri-	Pa-
.	.	.	.	.	.	.	.	.	2f\	.	.
!	!	!	!LO:LB:g=original	!	!	!	!	!	!	!	!
=16	=16	=16	=16	=16	=16	=16	=16	=16	=16	=16	=16
1E\	-d(us)	-tru(m)	1e\	-um-	-na-	1b\	-um-	-na-	1g\	-um-	-tru(m)
1C/	tri-	Se-	1e\	-phans	-tu(m)	1cc\	-phanſ	-tu(m)	1g\	-phanſ	Se-
*	*	*	*	*Xij	*Xij	*	*Xij	*Xij	*	*	*
!	!	!	!	!	!	!	!	!	!LO:LB:g=original	!	!
!LO:SIC:v:t=custos D	!	!	!	!	!	!	!	!	!	!	!
1F\	-um-	-na-	1c\	tri-	Se-	1a\	tri-	Se-	1f\,	tri-	-na-
!LO:LB:g=original	!	!	!	!	!	!	!	!	!	!	!
=17	=17	=17	=17	=17	=17	=17	=17	=17	=17	=17	=17
2D/	-phans	-tum	0d\	-um-	-na-	1dd\	-um-	-na-	2f\	-um-	.
2C/	Mun-	Pa-	.	.	.	.	.	.	2e\	.	.
2D/	-d(us)	-tru(m)	.	.	.	1.a\	.	.	2f\	.	.
2E\	tri-	Se-	.	.	.	.	.	.	2g\	.	.
1F\	-um-	-na-	2c\	.	.	.	.	.	1a\	.	tu(m)
.	.	.	2B\	.	.	2b\	.	.	.	.	.
=18	=18	=18	=18	=18	=18	=18	=18	=18	=18	=18	=18
1C/	-phans	-tum	1A\	-phanſ	-tu(m)	2cc\	.	.	1a\	-phanſ	li-
*	*Xij	*Xij	*	*	*	*	*	*	*	*	*
.	.	.	.	.	.	2dd\	-phanſ	-tu(m)	.	.	.
1.E\	iu-	li-	1.e\	ju-	li-	1.b\	ju-	li-	1.a\	Iu-	-be-
2E\	-bi-	-be-	2d\	-bi-	-be-	2b\	-bi-	-be-	2g#X\	-bi-	.
=19	=19	=19	=19	=19	=19	=19	=19	=19	=19	=19	=19
!	!	!	!LO:TX:a:t=P:problem:# above	!	!	!	!	!	!	!	!
0AA/	-lat	-rum	2c#X\	-lat	-ru(m)	0a\,	-lat	-rum	0.a\	-lat	-ranſ
.	.	.	2e\	.	e-	.	.	.	.	.	.
.	.	.	1c#\	hor-	-du-	.	.	.	.	.	.
1F#X\	hor-	e-	1A\	-renſ	-cit	1dd\	hor-	e-	.	.	.
=20	=20	=20	=20	=20	=20	=20	=20	=20	=20	=20	=20
0G\	-renſ	-du-	1d\	a-	e-	1b\	-rens	-du-	1r	.	.
.	.	.	0B\	-ver-	-du-	1g\	a-	-cit	1r	.	.
1E\	a-	-cit	.	.	.	1b\	-ver-	ad	1g#X\	hor-	e-
=21	=21	=21	=21	=21	=21	=21	=21	=21	=21	=21	=21
!	!	!	!	!	!	!LO:TX:t=P:problem:zaciemniona nuta	!	!	!	!	!
1C#X/	-ver-	ad	1e\	-n(us)	-cit	1a\	-n(us)	vi-	0a\	-renſ	-du-
!	!	!	!	!	!	!LO:TX:t=P:problem:zaciemniona nuta	!	!	!	!	!
1AA/	-n(us)	vi-	1c#X\	hor-	ad	1cc#X\	hor-	-tae	.	.	.
*	*ij	*	*	*	*	*	*	*	*	*	*
1D\	hor-	-tae	1A\	-renſ	vi-	0dd\	-renſ	iu-	1f#X\	a-	-cit
=22	=22	=22	=22	=22	=22	=22-	=22	=22	=22	=22	=22
*	*	*	*	*	*	*	*	*	*	*	*ij
0BB/	-renſ	du-	1.d\	a-	-tae	.	.	.	1d\	-ver-	e-
.	.	.	.	.	.	0b\	a-	-bar	1.g\	-n(us)	-du-
.	.	.	2c\	-ver-	.	.	.	.	.	.	.
1GG/	a-	-cit	2B\	.	ad	.	.	.	.	.	.
.	.	.	4A\	.	.	.	.	.	2f\	.	.
.	.	.	4B\	.	.	.	.	.	.	.	.
!	!	!	!	!	!	!LO:LB:g=original	!	!	!	!	!
=23	=23	=23	=23	=23	=23	=23	=23	=23	=23	=23	=23
1C/	-ver-	ad	1.c\	.	vi-	1g\	-ver-	e-	1e\	hor-	-cit
*	*	*	*	*	*	*	*	*	*	*	*Xij
1.FF/	-n(us)	vi-	.	.	.	2a\	.	.	2f\	.	ad
*	*Xij	*	*	*	*	*	*	*	*	*	*
.	.	.	4d\	.	.	2b\	.	.	2g\	.	.
.	.	.	4e\	.	.	.	.	.	.	.	.
.	.	.	1f\	.	.	1.cc\	.	-du-	1.a\	.	.
2GG/	a-	.	.	.	.	.	.	.	.	.	.
=24	=24	=24	=24	=24	=24	=24	=24	=24	=24	=24	=24
1.AA/	-ver-	-tae	2e\	.	.	.	.	.	.	.	.
.	.	.	2d\	.	.	2b\	.	-cit	4g\	-rens	.
.	.	.	.	.	.	.	.	.	4f\	.	.
!	!	!	!LO:LB:g=original	!	!	!	!	!	!	!	!
.	.	.	1.c\	.	.	1.a\	.	ad	1e\	a-	vi-
2GG/	.	.	.	.	.	.	.	.	.	.	.
2FF/	.	.	.	.	.	.	.	.	1f\	-ver-	-tae
2F\	.	ad	2d\	.	.	2b\	.	vi-	.	.	.
!	!	!	!	!	!	!	!	!	!LO:LB:g=original	!	!
=25	=25	=25	=25	=25	=25	=25	=25	=25	=25	=25	=25
1E\	-n(us)	vi-	1e\	-n(us)	-tae	1cc\	-n(us)	-tae	1g\	-n(us)	I-
1.G\	in-	-tae	1.d\	in-	Iu-	1.cc\	in-	iu-	1.d\	in-	-u-
!LO:LB:g=original	!	!	!	!	!	!	!	!	!	!	!
2GG/	-fre-	iu-	2d\	-fre-	.	2b\	-fre-	.	2d\	-fre-	.
=26	=26	=26	=26	=26	=26	=26	=26	=26	=26	=26	=26
0C/	-mit	-bar.	0c\	-mit	-bar.	0cc\;;	-mit	-bar	0.e\	-mit	-bar
1ryy	.	.	1ryy	.	.	1ryy	.	.	.	.	.
=27||	=27||	=27||	=27||	=27||	=27||	=27||	=27||	=27||	=27||	=27||	=27||
*M3/1	*	*	*M3/1	*	*	*M3/1	*	*	*M3/1	*	*
1C/	3 Cu-	4 Sat	1c\	3 Cu-	4 Sat	1g\	3 Cu-	4 Sat	1e\	3 Cu-	4 Sat
1C/	-i(us)	fu-	1c\	-i(us)	fu-	1g\	-i(us)	fu-	1e\	-ius	fu-
1BB/	se-	-ne-	1d\	Se-	-ne-	1g\	Se-	-ne-	1d\	Se-	-ne-
=28	=28	=28	=28	=28	=28	=28	=28	=28	=28	=28	=28
1.C/	-pul-	-ri	0c\	-pul-	-ri	1.e/	-pul-	-ri	0e\	-pul-	-ri
2D/	.	.	.	.	.	2f/	.	.	.	.	.
1E\	.	.	1B\	.	Sat	1g\	.	.	1e\	-chru(m)	Sat
=29	=29	=29	=29	=29	=29	=29	=29	=29	=29	=29	=29
1C/	-chru(m)	Sat	0c\	-chru(m)	la-	1g\	-chru(m)	Sat	0e\	plu-	la-
1.F\	plu-	la-	.	.	.	1.a\	plu-	la-	.	.	.
.	.	.	(2B\	plu-	-cry-	.	.	.	1d\	-ri-	-cry-
2F\	-ri-	-cry-	2A\)	-ri-	mis	2a\	-ri-	-cry-	.	.	.
!	!	!	!	!	!	!LO:LB:g=original	!	!	!	!	!
=30	=30	=30	=30	=30	=30	=30	=30	=30	=30	=30	=30
0E\	-mo	-mis	1B\	-mo	Sat	1g#X\	-mo	-mis	0.e\	-mo	-mis
*	*	*	*lig	*	*	*	*	*	*	*	*
.	.	.	1B\	cu-	eſt	(<1g#\	cu-	Sat	.	.	.
1E\	Cu-	Sat	1c\	.	.	1a\)	.	eſt	.	.	.
*	*	*	*Xlig	*	*	*	*	*	*	*	*
=31	=31	=31	=31	=31	=31	=31	=31	=31	=31	=31	=31
!LO:N:acc=#	!	!	!	!	!	!	!	!	!	!	!
1Dn\	-ſto-	eſt	0.d\	-ſto-	da-	0.b\	-sto-	da-	1r	.	.
!	!	!	!	!	!	!	!	!	!LO:TX:t=P:problem:# above	!	!
1D\	-de	Sat	.	.	.	.	.	.	(<1f#X\	cuſ-	Sat
1E\	Si-	eſt	.	.	.	.	.	.	1g\)	.	eſt
=32	=32	=32	=32	=32	=32	=32	=32	=32	=32	=32	=32
0.F\	-gna-	da-	1c\	-de	-tu(m)	1a\	-de	-tum	0.a\	-to-	da-
*	*	*	*lig	*ij	*ij	*	*	*	*	*	*
.	.	.	1c\	cu-	eſt	(<1a\	cu-	Sat	.	.	.
.	.	.	1d\	.	.	1b\)	.	eſt	.	.	.
*	*	*	*Xlig	*	*	*	*	*	*	*	*
=33	=33	=33	=33	=33	=33	=33	=33	=33	=33	=33	=33
1C/	-bat	-tu(m)	1e\	-ſto-	da-	1cc\	-sto-	da-	1g\	-de	-tu(m)
*lig	*	*	*	*	*	*	*	*	*	*ij	*ij
1E\	cu-	Sat	1.e\	-de	-tu(m)	1cc\	-de	-tu(m)	1g\	cuſ-	Sat
*	*	*	*	*Xij	*Xij	*	*	*	*	*	*
1F\	.	.	.	.	.	1cc\	Si-	Sat	1a\	.	eſt
.	.	.	2d\	Si-	do-	.	.	.	.	.	.
*Xlig	*	*	*	*	*	*	*	*	*	*	*
!	!	!	!LO:LB:g=original	!	!	!	!	!	!	!	!
=34	=34	=34	=34	=34	=34	=34	=34	=34	=34	=34	=34
1G\	-ſto-	eſt	1d\	-gna-	-lo-	1b\	-gna-	eſt	1g\	-to-	da-
1F\	-de	da-	1d\	-bat	-ri-	2cc\	.	da-	1a\	-de	-tu(m)
*	*	*	*	*	*	*	*	*	*	*Xij	*Xij
.	.	.	.	.	.	2dd\	.	.	.	.	.
1E\	Si-	-tu(m)	1G/	Si-	-b(us)	2ee\	.	.	1g\	Si-	do-
.	.	.	.	.	.	2dd\	.	.	.	.	.
!LO:LB:g=original	!	!	!	!	!	!	!	!	!LO:LB:g=original	!	!
=35	=35	=35	=35	=35	=35	=35	=35	=35	=35	=35	=35
1.F\	-gna-	do-	1.A\	-gna-	do-	1.cc\	.	.	0f\	-gna-	-lo-
2G\	.	.	2B\	.	.	2b\	.	.	.	.	.
1A\	.	.	1c\	.	.	1a\	.	tu(m)	1e\	.	.
=36	=36	=36	=36	=36	=36	=36	=36	=36	=36	=36	=36
1D\	-bat	-lo-	0B\	-bat	-lo-	1a\	-bat	do-	1f\	-bat	-ri-
0E\	pa-	-ri-	.	.	.	1a\	la-	-lo-	0e\	la-	.
.	.	.	1B\	la-	-ri-	1g#X\	.	-ri-	.	.	.
=37	=37	=37	=37	=37	=37	=37	=37	=37	=37	=37	=37
0AA/	-pis	-b(us)	1c#X\	-pis	-b(us)	0a\	-pis	-b(us)	0e\	-pis	-b(us)
.	.	.	1e\	Vi-	Sur-	.	.	.	.	.	.
!	!	!	!	!	!	!LO:LB:g=original	!	!	!	!	!
1A\	Vi-	Sur-	[y1c#\	-ctor	-re-	1a\	Vi-	Sur-	1r	.	.
=38	=38	=38	=38	=38	=38	=38	=38	=38	=38	=38	=38
!	!	!	!LO:N:xstem:cue:vis	!	!	!	!	!	!	!	!
1.F\	-ctor	-re-	2A\]	.	.	[<1a\	-ctor	-re-	1a\	Vi-	Sur-
.	.	.	2A/	tri-	-xit	.	.	.	.	.	.
*	*	*	*	*	*ij	*	*	*	*	*	*
.	.	.	1d\	-um-	Sur-	2a/]	.	.	1f\	-ctor	-re-
2D\	tri-	-xit	.	.	.	2a\	tri-	-xit	.	.	.
*	*	*ij	*	*	*	*	*	*	*	*	*
1G\	-um-	Sur-	1B\	.	-re-	1b\	-um-	Sur-	1d\	tri-	-xit
=39	=39	=39	=39	=39	=39	=39	=39	=39	=39	=39	=39
*	*	*	*	*	*	*	*	*	*	*	*ij
1.E\	-phat	-re-	1e\	-phat	-xit	2b\	-phat	-re-	1g\	-um-	Sur-
*	*	*	*	*ij	*Xij	*	*	*	*	*	*
.	.	.	.	.	.	2g\	tri-	-xit	.	.	.
*	*	*	*	*	*	*	*	*ij	*	*	*
.	.	.	1G/	tri-	ex-	1cc\	-um-	Sur-	1e\	-phat	-re-
2C/	tri-	-xit	.	.	.	.	.	.	.	.	.
*	*	*Xij	*	*	*	*	*	*	*	*	*
1F\	-um-	ex-	1F/	-um-	-tin-	1a\	-phat	re-	1c\	tri-	-xit
*	*	*	*	*	*	*	*	*	*	*	*Xij
=40	=40	=40	=40	=40	=40	=40	=40	=40	=40	=40	=40
1E\	-phat	-tin-	2c\	-phat	-ctor	0cc\	et	-xit	2g\	-um-	ex-
*	*	*	*	*Xij	*	*	*	*Xij	*	*	*
.	.	.	2c\	.	.	.	.	.	2g\	-phat	-tin-
1.D\	et	-ctor	1.d\	et	.	.	.	.	1.f\	.	.
.	.	.	.	.	.	1b\	Su-	ex-	.	.	.
2D/	Su-	Ne-	2d\	Su-	ne-	.	.	.	2f\	et	-ctor
=41	=41	=41	=41	=41	=41	=41	=41	=41	=41	=41	=41
1C/	-o	-cis	0G/	-o	-cis	1cc\	-o	-tin-	1e\	Su-	ne-
0E\	Mor-	cla-	.	.	.	0b\	Mor-	-cotr	0g\	-o	-cis
.	.	.	1e\	Mor-	cla-	.	.	.	.	.	.
=42	=42	=42	=42-	=42	=42	=42	=42	=42	=42	=42	=42
0BB/	-tem	-mat	0d#X\	-te(m)	-mat	0b\	-te(m)	ne-	0f#X\	Mor-	Cla-
!	!	!	!LO:N:acc=-	!	!	!	!	!	!LO:N:acc=-	!	!
1D\	Se-	co-	1dn\	Se-	co-	1a\	Se-	-cis	1fn\	-te(m)	-mat
!	!	!	!LO:LB:g=original	!	!	!	!	!	!	!	!
=43	=43	=43	=43	=43	=43	=43	=43	=43	=43	=43	=43
1AA/	-pul-	-ruſ-	1c#X\	-pul-	-ruſ-	1a\	-pul-	cla-	1e\	Se-	Co-
1AA/	-chro	-cans	1c#\	-chro	-cans	1a\	-chro	-mat	1e\	-pul-	-ruſ-
!	!	!	!LO:N:acc=-	!	!	!	!	!	!	!	!
*	*ij	*ij	*	*ij	*ij	*	*	*	*	*	*
1A\	Mor-	cla-	1cn\	Mor-	cla-	1a\	et	co-	1e\	-chro	-cans
=44	=44	=44	=44	=44	=44	=44	=44	=44	=44	=44	=44
*	*	*	*	*	*	*	*	*	*	*ij	*ij
0E\	-tem	-mat	0B\	-te(m)	-mat	0g#X\	Su-	-ruſ-	0e\	Mor-	Cla-
!	!	!	!	!	!	!LO:N:acc=-	!	!	!	!	!
1G\	Se-	co-	1B-X\	se-	co-	1gn\	-o	-cans	1d\	-te(m)	-mat
!LO:LB:g=original	!	!	!	!	!	!	!	!	!LO:LB:g=original	!	!
=45	=45	=45	=45	=45	=45	=45	=45	=45	=45	=45	=45
1D\	-pul-	-ruſ-	1A\	-pul-	-ruſ-	1f#X/	Mor-	cla-	1d\	Se-	Co-
1D\	-chro	-cans	1A\	-chro	-cans	1f#/	-tem	-mat	1d\	-pul-	-ruſ-
*	*Xij	*Xij	*	*Xij	*Xij	*	*	*	*	*	*
!	!	!	!	!	!	!LO:SIC:v:t=custos a	!	!	!	!	!
1E\	Se-	co-	2e\	Se-	co-	1g\	Se-	co-	1g\	-chro	-cans
*	*	*	*	*	*	*	*	*	*	*Xij	*Xij
.	.	.	2d\	-pul-	.	.	.	.	.	.	.
!	!	!	!	!	!	!LO:LB:g=original	!	!	!	!	!
=46	=46	=46	=46	=46	=46	=46	=46	=46	=46	=46	=46
1.F\	-pul-	-ruſ-	1.c\	.	-ruſ-	1.a\	-pul-	-ruſ-	0f\	Se-	co-
2G\	.	.	2B\	.	.	2b\	.	.	.	.	.
1A\	.	.	2A/	.	.	1cc#X\	.	.	1e\	-pul-	-ruſ-
.	.	.	2G/	.	.	.	.	.	.	.	.
=47	=47	=47	=47	=47	=47	=47	=47	=47	=47	=47	=47
1B-X\	-chro	-canſ	2F/	-chro	-cans	1dd\	-chro	-cans	2d\	-chro	-cans
.	.	.	2G/	.	.	.	.	.	2e\	fu-	an-
1.A\	fu-	an-	1.A\	fu-	an-	1.dd\	fu-	an-	2f\	.	.
.	.	.	.	.	.	.	.	.	4e\	.	.
.	.	.	.	.	.	.	.	.	4d\	.	.
.	.	.	.	.	.	.	.	.	2e\	.	.
2A\	-ne-	-ge-	2A/	-ne-	-ge-	2cc#X\	-ne-	-ge-	2e\	-ne-	-ge-
=48	=48	=48	=48	=48	=48	=48	=48	=48	=48	=48	=48
1D\	-rat	-l(us)	0A\	-rat	-l(us)	1dd\	-rat	-l(us)	1d\	-rat	-l(us)
0D\	Mor-	cla-	.	.	.	0dd\	mor-	cla-	0e\	Mor-	cla-
.	.	.	1A\	Mor-	cla-	.	.	.	.	.	.
=49	=49	=49	=49	=49	=49	=49	=49	=49	=49	=49	=49
0AA/	-te(m)	-mat	0A\	-te(m)	-mat	0cc#X\	-tem	-mat	0e\	-te(m)	-mat
!	!	!	!	!	!	!LO:N:acc=-	!	!	!	!	!
1C/	Se-	co-	1G/	Se-	co-	1ccn\	Se-	co-	1e-X\	Se-	Co-
=50	=50	=50	=50	=50	=50	=50	=50	=50	=50	=50	=50
1GG/	-pul-	-ruſ-	1G/	-pul-	-ruſ-	1b\	-pul-	-ruſ-	1d\	-pul-	-ruſ-
1GG/	-chro	-canſ	1G/	-chro	-canſ	1b\	-chro	-cans	1d\	-chro	-cans
*	*ij	*ij	*	*ij	*ij	*	*	*ij	*	*ij	*ij
1G\	Mor-	cla-	1d\	Mor-	cla-	1b-X\	mor-	cla-	1g\	Mor-	cla-
=51	=51	=51	=51	=51	=51	=51	=51	=51	=51	=51	=51
!	!	!	!	!	!	!	!	!	!LO:TX:a:t=P:problem:# above	!	!
0D\	-tem	-mat	0d\	-te(m)	-mat	0a\	-tem	-mat	0f#X\	-te(m)	-mat
!	!	!	!	!	!	!	!	!	!LO:N:acc=-	!	!
1F\	Se-	co-	1c\	se-	co-	1a-X\	se-	co-	1fn\	Se-	Co-
!	!	!	!LO:LB:g=original	!	!	!	!	!	!	!	!
=52	=52	=52	=52	=52	=52	=52	=52	=52	=52	=52	=52
!	!	!	!	!	!	!	!	!	!LO:N:acc=#	!	!
1C/	-pul-	-ruſ-	1c\	-pul-	-ruſ-	1g\	-pul-	-ruſ-	1en\	-pul-	-ruſ-
1C/	-chro	-canſ	1c\	-chro	-cans	1g\	-chro	-cans	1e\	-chro	-cans
*	*Xij	*Xij	*	*Xij	*Xij	*	*Xij	*Xij	*	*Xij	*Xij
1E-X\	Se-	co-	1B-X\	Se-	co-	1g\	Se-	co-	1e-X\	Se-	co-
=53	=53	=53	=53	=53	=53	=53	=53	=53	=53	=53	=53
!	!	!	!LO:SIC:s:v=B-	!	!	!	!	!	!	!	!
1.BB-X/	-pul-	-ruſ-	0B\	-pul-	-ruſ-	1.f/	-pul-	-ruſ-	1.d\	-pul-	-ruſ-
2C/	.	.	.	.	.	2e/	.	.	2e\	.	.
!LO:SIC:v:t=custos E-	!	!	!	!	!	!	!	!	!LO:TX:a:t=P:problem:# above	!	!
1D\	.	.	1A\	.	.	1d/	.	.	1f#X\	.	.
!LO:LB:g=original	!	!	!	!	!	!LO:LB:g=original	!	!	!LO:LB:g=original	!	!
=54	=54	=54	=54	=54	=54	=54	=54	=54	=54	=54	=54
1E-X\	-chro	-cans	2G/	-chro	-cans	1g\	-chro	-cans	1g\	-chro	-cans
.	.	.	2A/	fu-	an-	.	.	.	.	.	.
!	!	!	!LO:SIC:s:v=B-	!	!	!	!	!	!	!	!
1.D\	fu-	an-	2B\	.	.	1.d/	fu-	an-	1.g\	fu-	an-
.	.	.	4A/	.	.	.	.	.	.	.	.
.	.	.	4G/	.	.	.	.	.	.	.	.
.	.	.	2.A/	.	.	.	.	.	.	.	.
2D/	-ne-	-ge-	.	.	.	2d/	-ne-	-ge-	2f#X\	-ne-	-ge-
.	.	.	4A/	-ne-	-ge-	.	.	.	.	.	.
=55	=55	=55	=55	=55	=55	=55	=55	=55	=55	=55	=55
!	!	!	!LO:N:acc=#	!	!	!	!	!	!	!	!
0GG/	-rat	-l(us)	0Bn\	-rat	-l(us).	0d/	-rat	-l(us)	0g\	-rat	-l(us)
1G\	Se-	co-	1B\	Mor-	cla-	1dd\	Mor-	cla-	1g\	Se-	Co-
=56	=56	=56	=56	=56	=56	=56	=56	=56	=56	=56	=56
1.E-X\	-pul-	-ruſ-	1.c\	-te(m)	-mat	1.ee-X\	-tem	-mat	1.g\	-pul-	-ruſ-
2F\	.	.	2c\	Se-	co-	2dd\	Se-	co-	2f\	.	.
!	!	!	!	!	!	!LO:N:acc=#	!	!	!	!	!
1G\	.	.	1G/	-pul-	-ruſ-	1bn\	-pul-	-ruſ-	1d\	-chro	-cans
=57	=57	=57	=57	=57	=57	=57	=57	=57	=57	=57	=57
1A-X\	-chro	-cans	1c\	-chro	-cans	1cc\	-chro	-cans	2c/	fu-	an-
.	.	.	.	.	.	.	.	.	2d\	.	.
1.G\	fu-	an-	1.G/	fu-	an-	1.cc\	fu-	an-	2e\	.	.
.	.	.	.	.	.	.	.	.	4d\	.	.
.	.	.	.	.	.	.	.	.	4c/	.	.
.	.	.	.	.	.	.	.	.	2.d\	.	.
!	!	!	!	!	!	!LO:N:acc=#	!	!	!	!	!
2G\	-ne-	-ge-	2G/	-ne-	-ge-	2bn\	-ne-	-ge-	.	.	.
.	.	.	.	.	.	.	.	.	4d\	-ne-	ge-
=58	=58	=58	=58	=58	=58	=58	=58	=58	=58	=58	=58
!	!	!	!	!	!	!	!	!	!LO:N:acc=#	!	!
0.C/;;	-rat	-l(us)	0.G/	-rat	-l(us).	0.cc\;;	-rat.	-l(us)	0.en\	-rat	-l(us)
=59||	=59||	=59||	=59||	=59||	=59||	=59||	=59||	=59||	=59||	=59||	=59||
*M3/1	*	*	*M3/1	*	*	*M3/1	*	*	*M3/1	*	*
1r	.	.	1r	.	.	1r	.	.	1r	.	.
1r	.	.	1r	.	.	1r	.	.	1r	.	.
!	!	!	!LO:LB:g=original	!	!	!	!	!	!	!	!
1C/	5 Vt	.	1c\	5 Vt	.	1g\	5 Vt	.	1e\	5 Vt	.
=60	=60	=60	=60	=60	=60	=60	=60	=60	=60	=60	=60
0C/	sis	.	0c\	Sis	.	0g\	Sis	.	0e\	ſis	.
1BB/	pe-	.	1d\	pe-	.	1g\	pe-	.	1g\	pe-	.
=61	=61	=61	=61	=61	=61	=61	=61	=61	=61	=61	=61
0AA/	-ren-	.	2c\	-ren-	.	1.a\	-ren-	.	0g\	-ren-	.
.	.	.	2d\	.	.	.	.	.	.	.	.
.	.	.	1e\	.	.	.	.	.	.	.	.
.	.	.	.	.	.	2b\	.	.	.	.	.
!	!	!	!	!	!	!	!	!	!LO:TX:a:t=P:problem:# above	!	!
1AA/	-ne	.	2d\	-ne	.	2cc\	-ne	.	1f#X\	-ne	.
.	.	.	2c\	.	.	2dd\	.	.	.	.	.
!	!	!	!	!	!	!LO:LB:g=original	!	!	!	!	!
=62	=62	=62	=62	=62	=62	=62	=62	=62	=62	=62	=62
1.GG/	men-	.	1.d\	Men-	.	1.b\	men-	.	1.g\	Men-	.
2GG/	-ti-	.	2d\	-ti-	.	2b\	-ti-	.	2g\	-ti-	.
!	!	!	!	!	!	!	!	!	!LO:LB:g=original	!	!
1GG/	-b(us)	.	1d\,	-b(us)	.	1b\	-b(us)	.	1g\,	-b(us)	.
!LO:LB:g=original	!	!	!	!	!	!	!	!	!	!	!
=63	=63	=63	=63	=63	=63	=63	=63	=63	=63	=63	=63
1F#X\	Paſ-	.	1d\	Paſ-	.	1a\	paſ-	.	1d\	Paſ-	.
1F#\	-cha-	.	1d\	-cha-	.	1a\	-cha-	.	1d\	-cha-	.
1F#\	-le	.	1A\	-le	.	1dd\	-le	.	1d\	-le	.
=64	=64	=64	=64	=64	=64	=64	=64	=64	=64	=64	=64
1.G\	Ie-	.	0.d\	Ie-	.	2b\	Ie-	.	0g\	Ie-	.
.	.	.	.	.	.	2a\	.	.	.	.	.
.	.	.	.	.	.	2b\	.	.	.	.	.
2A\	.	.	.	.	.	2cc\	.	.	.	.	.
1B-X\	.	.	.	.	.	1dd\	.	.	1f\	-ſu	.
=65	=65	=65	=65	=65	=65	=65	=65	=65	=65	=65	=65
1F\	-su	.	1d\	-ſu	.	1ee\	-Su	.	1f\	gau-	.
1.A\	gau-	.	1.d\	gau-	.	1.ee\	gau-	.	1.e\	.	.
2A\	-di-	.	2c#X\	-di-	.	2ee\	-di-	.	2e\	-di-	.
=66	=66	=66	=66	=66	=66	=66	=66	=66	=66	=66	=66
0D\	-u(m)	.	0d\	-u(m)	.	0dd\,	-um	.	0f-\	-u(m)	.
1C#X/	a	.	1A\	a	.	1ee\	à	.	1e\	a	.
=67	=67	=67	=67	=67	=67	=67	=67	=67	=67	=67	=67
0E\	Mor-	.	0B\	Mor-	.	0g#X\	mor-	.	0e\	Mor-	.
1E\	-te	.	1B\	-te	.	1g#\	-te	.	1e\	-te	.
=68	=68	=68	=68	=68	=68	=68	=68	=68	=68	=68	=68
1F\	di-	.	0A\	di-	.	1a\	di-	.	1c\	di-	.
0D\	-ra	.	.	.	.	2dd\	-ra	.	0f\	-ra	.
.	.	.	.	.	.	2cc\	.	.	.	.	.
.	.	.	1A\	-ra	.	2b\	.	.	.	.	.
.	.	.	.	.	.	2cc\	.	.	.	.	.
=69	=69	=69	=69	=69	=69	=69	=69	=69	=69	=69	=69
1.E\	Cri-	.	1.G#X/	Cri-	.	1.b\	cri-	.	1.e\	Cri-	.
2E\	-mi-	.	2A/	-mi-	.	2a\	-mi-	.	2e\	-mi-	.
!	!	!	!	!	!	!LO:LB:g=original	!	!	!	!	!
1E\	-nu(m)	.	1B\	-nu(m)	.	1g#X\	-nu(m)	.	1e\	-num	.
!	!	!	!LO:LB:g=original	!	!	!	!	!	!	!	!
=70	=70	=70	=70	=70	=70	=70	=70	=70	=70	=70	=70
1F\	vi-	.	1A\	Vi-	.	1a\	Vi-	.	1c\	Vi-	.
1G\	-tae	.	1.B\	-tae	.	1.d/	-tae	.	1g\	-tae	.
1GG/	re-	.	.	.	.	.	.	.	1d\	re-	.
.	.	.	2B\	re-	.	2g/	re-	.	.	.	.
=71	=71	=71	=71	=71	=71	=71	=71	=71	=71	=71	=71
1.C/	-na-	.	0c\	-na-	.	2e/	-na-	.	1.e\	-na-	.
.	.	.	.	.	.	2f/	.	.	.	.	.
.	.	.	.	.	.	2g/	.	.	.	.	.
2BB/	.	.	.	.	.	4a\	.	.	4f\	.	.
.	.	.	.	.	.	4b\	.	.	4g\	.	.
!LO:SIC:v:t=custos BB	!	!	!	!	!	!	!	!	!	!	!
1AA/	.	.	1c\	-tos	.	1cc\	.	.	1a\	.	.
!LO:LB:g=original	!	!	!	!	!	!	!	!	!	!	!
=72	=72	=72	=72	=72	=72	=72	=72	=72	=72	=72	=72
1BB/	-tos	.	0d\	li-	.	1b\	-tos	.	1g\	-tos	.
1.D\	li-	.	.	.	.	1.a\	li-	.	1.g\	li-	.
.	.	.	1d\	-be-	.	.	.	.	.	.	.
!	!	!	!	!	!	!	!	!	!LO:TX:a:t=P:problem:# above	!	!
2D/	-be-	.	.	.	.	2a\	-be-	.	2f#X\	-be-	.
=73	=73	=73	=73	=73	=73	=73	=73	=73	=73	=73	=73
0GG/	-ra	.	0d\	-ra	.	0g\	-ra	.	0g\	-ra	.
!	!	!	!	!	!	!	!	!	!LO:LB:g=original	!	!
1E\	vi-	.	1e\	Vi-	.	1cc\	Vi-	.	1g\	Vi-	.
=74	=74	=74	=74	=74	=74	=74	=74	=74	=74	=74	=74
*lig	*	*	*	*	*	*	*	*	*	*	*
1F\	-tae	.	1c\	-tae	.	1.a\	-tae	.	0f\	-tae	.
1D\	.	.	0d\	re-	.	.	.	.	.	.	.
.	.	.	.	.	.	2dd\	re-	.	.	.	.
*Xlig	*	*	*	*	*	*	*	*	*	*	*
1G\	re-	.	.	.	.	2b\	-na-	.	1d\	re-	.
.	.	.	.	.	.	2a\	.	.	.	.	.
=75	=75	=75	=75	=75	=75	=75	=75	=75	=75	=75	=75
*lig	*	*	*	*	*	*	*	*	*	*	*
1E\	-na-	.	[0c\	-na-	.	1g\	.	.	1e\	-na-	.
1F\	.	.	.	.	.	2a\	.	.	2c/	.	.
.	.	.	.	.	.	2g\	.	.	2d\	.	.
*Xlig	*	*	*	*	*	*	*	*	*	*	*
2E\	.	.	2c\]	.	.	2a\	.	.	2e\	.	.
2D\	.	.	2d\	.	.	2b\	.	.	2f\	.	.
=76	=76	=76	=76	=76	=76	=76	=76	=76	=76	=76	=76
1.C/	.	.	1.e\	.	.	1.cc\	.	.	0g\	.	.
2BB/	.	.	2d\	.	.	4dd\	.	.	.	.	.
.	.	.	.	.	.	4ee\	.	.	.	.	.
!	!	!	!	!	!	!LO:SIC:v:t=custos ee	!	!	!	!	!
2AA/	.	.	2c\	.	.	1ff\	.	.	1a\	.	.
2BB/	.	.	2d\	.	.	.	.	.	.	.	.
!	!	!	!	!	!	!LO:LB:g=original	!	!	!	!	!
=77	=77	=77	=77	=77	=77	=77	=77	=77	=77	=77	=77
1C/	.	.	2e\	tos	.	1ee\	-tos	.	1g\	-tos	.
.	.	.	2c\	.	.	.	.	.	.	.	.
1FF/	-tos	.	1.c\,	li-	.	1.dd\	li-	.	1f\	li-	.
2.GG/	li-	.	.	.	.	.	.	.	1d\	-be-	.
.	.	.	2B\	-be-	.	2cc\	-be-	.	.	.	.
4GG/	-be-	.	.	.	.	.	.	.	.	.	.
=78	=78	=78	=78	=78	=78	=78	=78	=78	=78	=78	=78
0.C/	-ra	.	0.c\;;	-ra	.	0.cc\;;	-ra	.	0.e\;;	-ra	.
!LO:LB:g=original	!	!	!LO:LB:g=original	!	!	!	!	!	!	!	!
=79||	=79||	=79||	=79||	=79||	=79||	=79||	=79||	=79||	=79||	=79||	=79||
*M3/1	*	*	*M3/1	*	*	*M3/1	*	*	*M3/1	*	*
0C/	Al-	.	0c\	al-	.	1g\	6 Al-	.	1g\	Al-	.
.	.	.	.	.	.	1cc\	-le-	.	1g\	-le-	.
!	!	!	!	!	!	!	!	!	!LO:TX:a:t=P:problem:# above	!	!
1AA/	-le-	.	1c\	-le-	.	1cc\	-lu-	.	1f#X\	.	.
=80	=80	=80	=80	=80	=80	=80	=80	=80	=80	=80	=80
1GG/	-lu-	.	1.c\	-lu-	.	1.dd\	-ia	.	1.g\	-lu-	.
1GG/	-ia	.	.	.	.	.	.	.	.	.	.
.	.	.	2B\	.	.	4cc\	.	.	2f\	.	.
.	.	.	.	.	.	4dd\	.	.	.	.	.
0C/	al-	.	1c\	-ia	.	1ee\	.	.	0e\	-ia	.
=81-	=81	=81	=81	=81	=81	=81	=81	=81	=81	=81	=81
*	*	*	*	*ij	*	*	*	*	*	*	*
.	-le-	.	0G/	al-	.	1cc\	al-	.	.	.	.
1.BB/	.	.	.	.	.	1.gg\	.	.	1.d\	al-	.
.	.	.	1G/	-le-	.	.	.	.	.	.	.
4AA/	.	.	.	.	.	2ff\	.	.	4c\	.	.
4BB/	.	.	.	.	.	.	.	.	4d\	.	.
=82	=82	=82	=82	=82	=82	=82	=82	=82	=82	=82	=82
1.C/	.	.	0G/	-lu-	.	2ee\	.	.	1.e\	-le-	.
.	.	.	.	.	.	2dd\	.	.	.	.	.
.	.	.	.	.	.	2cc\	.	.	.	.	.
4BB/	.	.	.	.	.	2b\	.	.	4d\	.	.
!	!	!	!	!	!	!	!	!	!LO:LB:g=original	!	!
4C/	.	.	.	.	.	.	.	.	4e\	.	.
1D\	.	.	1d\	-ia	.	2a\	.	.	1f#X\	.	.
*	*	*	*	*Xij	*	*	*	*	*	*	*
.	.	.	.	.	.	4dd\	.	.	.	.	.
.	.	.	.	.	.	4cc\	.	.	.	.	.
=83	=83	=83	=83	=83	=83	=83	=83	=83	=83	=83	=83
1.GG/	-lu-	.	1.d\	al-	.	1.b\	.	.	1.g\	-lu-	.
2AA/	.	.	2c\	.	.	2cc\	.	.	4f\	.	.
.	.	.	.	.	.	.	.	.	4e\	.	.
1BB/	ia	.	1.B\	-le-	.	1dd\	.	.	1d\	-ia	.
!	!	!	!	!	!	!LO:LB:g=original	!	!	!	!	!
=84	=84	=84	=84-	=84	=84	=84	=84	=84	=84	=84	=84
*	*ij	*	*	*	*	*	*	*	*	*ij	*
1E\	al-	.	.	.	.	1ee\	-le-	.	2e\	al-	.
.	.	.	2c\	.	.	.	.	.	2g\	.	.
1.D\	-le-	.	1.d\	-lu-	.	1.a\	-lu-	.	1.g\	-le-	.
!	!	!	!	!	!	!	!	!	!LO:SIC:s:v=f#	!	!
2D/	-lu-	.	2d\	-ia	.	2g/	.	.	2f\	lu-	.
=85	=85	=85	=85	=85	=85	=85	=85	=85	=85	=85	=85
1GG/	-ia	.	1d\	al-	.	1g\	-ia	.	2g\	-ia	.
*	*Xij	*	*	*	*	*	*	*	*	*	*
.	.	.	.	.	.	.	.	.	2d\	al-	.
1.E\	al-	.	1.c\	-le-	.	1.g\	al-	.	1.e\	.	.
2E\	-le-	.	2B\	.	.	4f/	.	.	2d\	.	.
.	.	.	.	.	.	4g/	.	.	.	.	.
=86	=86	=86	=86	=86	=86	=86	=86	=86	=86	=86	=86
1F\	-lu-	.	1A\	.	.	1a\	.	.	1c\	.	.
1.F#X\	-ia	.	1.A\	.	.	1.a\	-le-	.	1.d\	-le-	.
4E\	.	.	2A/	-lu-	.	4g\	.	.	2c/	-lu-	.
4F#\	.	.	.	.	.	4a\	.	.	.	.	.
=87	=87	=87	=87	=87	=87	=87	=87	=87	=87	=87	=87
1.G\	.	.	0.G/	-ia	.	1b\	.	.	1B/	-ia	.
.	.	.	.	.	.	1g\	-lu-	.	0g\	al-	.
2F\	.	.	.	.	.	.	.	.	.	.	.
1E\	.	.	.	.	.	2cc\	-ia	.	.	.	.
.	.	.	.	.	.	2b\	.	.	.	.	.
!LO:LB:g=original	!	!	!LO:LB:g=original	!	!	!	!	!	!	!	!
=88	=88	=88	=88	=88	=88	=88	=88	=88	=88	=88	=88
1F\	al-	.	1.A\	al-	.	2a/	.	.	0f\	-le-	.
.	.	.	.	.	.	2g/	.	.	.	.	.
1D\	-le-	.	.	.	.	2f/	.	.	.	.	.
.	.	.	4G/	.	.	2e/	.	.	.	.	.
.	.	.	4A/	.	.	.	.	.	.	.	.
1G\	-lu-	.	1B\	-le-	.	2d/	.	.	1g\	-lu-	.
.	.	.	.	.	.	4g/	.	.	.	.	.
.	.	.	.	.	.	4f/	.	.	.	.	.
=89	=89	=89	=89	=89	=89	=89	=89	=89	=89	=89	=89
0C/	-ia	.	1.c\	-lu-	.	1.e/	al-	.	0g\	-ia	.
.	.	.	4B\	.	.	2f/	.	.	.	.	.
.	.	.	4c\	.	.	.	.	.	.	.	.
*	*ij	*	*	*	*	*	*	*	*	*	*
1BB/	al-	.	1d\	-ia	.	2g\	.	.	1d\	al-	.
.	.	.	.	.	.	4a\	.	.	.	.	.
.	.	.	.	.	.	4b\	.	.	.	.	.
=90	=90	=90	=90	=90	=90	=90	=90	=90	=90	=90	=90
*	*	*	*	*ij	*	*	*	*	*	*	*
1AA/	-le-	.	1A\	al-	.	1cc\	.	.	1e\	-le-	.
0E\	-lu-	.	1.A\	-le-	.	1.b\	-le-	.	1.e\	-lu-	.
!	!	!	!	!	!	!LO:SIC:v:t=custos a	!	!	!	!	!
.	.	.	2G#X/	-lu-	.	2b\	-lu-	.	2e\	-ia	.
*	*	*	*	*	*	*	*	*	*	*Xij	*
!	!	!	!	!	!	!LO:LB:g=original	!	!	!	!	!
=91	=91	=91	=91	=91	=91	=91	=91	=91	=91	=91	=91
1AA/	-ia	.	1A\	-ia	.	1a\	ia	.	1e\	al-	.
*	*Xij	*	*	*Xij	*	*	*ij	*	*	*	*
1A\	al-	.	1A\	al-	.	1cc\	al-	.	1e\	-le-	.
1E\	-le-	.	1c\	-le-	.	1g\	.	.	1g\	-lu-	.
=92	=92	=92	=92	=92	=92	=92	=92	=92	=92	=92	=92
1F\	-lu-	.	1c\	-lu-	.	1a\	-le-	.	1f\	-ia	.
*	*	*	*	*	*	*	*	*	*	*ij	*
1.E\	-ia	.	1.c\	-ia	.	1g\	-lu-	.	1.c\	al-	.
.	.	.	.	.	.	1f/	-ia	.	.	.	.
*	*	*	*	*ij	*	*	*	*	*	*	*
2D/	.	.	2B\	al-	.	.	.	.	2d\	-le-	.
!	!	!	!	!	!	!	!	!	!LO:LB:g=original	!	!
=93	=93	=93	=93	=93	=93	=93	=93	=93	=93	=93	=93
1.C/	.	.	1.c\	-le-	.	2e/	al-	.	1.e\	-lu-	.
.	.	.	.	.	.	2g/	.	.	.	.	.
.	.	.	.	.	.	2a\	.	.	.	.	.
2D/	.	.	4B\	-lu-	.	2b\	.	.	2f\	-ia	.
.	.	.	4A\	.	.	.	.	.	.	.	.
1E\	.	.	1G/	-ia	.	2cc\	.	.	1g\	al-	.
.	.	.	.	.	.	2b\	.	.	.	.	.
=94	=94	=94	=94	=94	=94	=94	=94	=94	=94	=94	=94
1.F\	.	.	1A\	al-	.	2a\	.	.	1.a\	-le-	.
.	.	.	.	.	.	2cc\	.	.	.	.	.
.	.	.	2B\	-le-	.	2dd\	.	.	.	.	.
2E\	.	.	2c\	.	.	2ee\	.	.	2g\	.	.
1D\	.	.	2d\	-lu-	.	2ff\	.	.	1f\	-lu-	.
.	.	.	2c\	.	.	2ee\	.	.	.	.	.
=95	=95	=95	=95	=95	=95	=95	=95	=95	=95	=95	=95
0G\	al-	.	1.B\	-ia	.	1.dd\	-le-	.	0.g\	-ia	.
.	.	.	2G/	al-	.	2b\	.	.	.	.	.
!	!	!	!LO:LB:g=original	!	!	!	!	!	!	!	!
1E\	-le-	.	2c\	-le-	.	2ee\	-lu-	.	.	.	.
.	.	.	2B\	-lu-	.	2dd\	.	.	.	.	.
=96	=96	=96	=96	=96	=96	=96	=96	=96	=96	=96	=96
1.A\	-lu-	.	2A/	-ia	.	2cc\	.	.	0a\	al-	.
.	.	.	2G/	al-	.	2b\	.	.	.	.	.
.	.	.	2A/	-le-	.	2cc\	.	.	.	.	.
4G\	-ia	.	2B/	-lu-	.	2dd\	.	.	.	.	.
4F\	.	.	.	.	.	.	.	.	.	.	.
!	!	!	!	!	!	!LO:SIC:v:t=custos cc	!	!	!	!	!
1E\	.	.	1c\	-ia	.	1ee\	-ia	.	1g\	-le-	.
!LO:LB:g=original	!	!	!	!	!	!LO:LB:g=original	!	!	!	!	!
=97	=97	=97	=97	=97	=97	=97	=97	=97	=97	=97	=97
1F\	al-	.	1f\	al-	.	1cc\	al-	.	1a\	-lu-	.
1.G\	-le-	.	1.d\	-le-	.	1.cc\	-le-	.	1.g\	.	.
2G\	-lu-	.	2d\	-lu-	.	2b\	-lu-	.	2f\	.	.
=98	=98	=98	=98	=98	=98	=98	=98	=98	=98	=98	=98
0.C/	-ia	.	0e\;<	-ia	.	0.cc\	-ia	.	0.e\	-ia	.
*	*	*	*	*	*	*	*	*	*	*Xij	*
.	.	.	1ryy	.	.	.	.	.	.	.	.
=99||	=99||	=99||	=99||	=99||	=99||	=99||	=99||	=99||	=99||	=99||	=99||
*M2/1	*	*	*M2/1	*	*	*M2/1	*	*	*M4/4	*	*
*met(C|)	*	*	*met(C|)	*	*	*met(C|)	*	*	*met(c)	*	*
*	*ij	*	*	*	*	*	*	*	*	*	*
2F\	al-	.	(2A\	al-	.	2.cc\	al-	.	2f\	al-	.
!LO:TX:a:t=P:problem:kreska pseudotaktowa	!	!	!	!	!	!	!	!	!LO:TX:a:t=P:problem:kreska pseudotaktowa	!	!
2E\	-le-	.	2.c\)	.	.	.	.	.	2g\	-le-	.
!	!	!	!	!	!	!LO:TX:a:t=P:problem:kreska pseudotaktowa	!	!	!	!	!
.	.	.	.	.	.	4b\	-le-	.	.	.	.
1F\	-lu-	.	.	.	.	2b\	-lu-	.	2g\	-lu-	.
.	.	.	4G/	-le-	.	.	.	.	.	.	.
.	.	.	1.c\	-lu-	.	4a\	-ia	.	4f\	ia	.
!	!	!	!	!	!	!LO:TX:a:t=P:problem:kreska pseudotaktowa	!	!	!LO:TX:a:t=P:problem:kreska pseudotaktowa	!	!
*	*	*	*	*	*	*	*	*	*	*ij	*
.	.	.	.	.	.	4g\	al-	.	4e\	al-	.
=100	=100	=100	=100	=100	=100	=100	=100	=100	=100	=100	=100
1FF/	.	.	.	.	.	1.a\	-le-	.	1.f\	-le-	.
0.C/	-ja	.	0.c\;;	-ia	.	.	.	.	.	.	.
*	*Xij	*	*	*Xij	*	*	*	*	*	*	*
.	.	.	.	.	.	4g/	-lu-	.	4e\	lu-	.
!	!	!	!	!	!	!	!	!	!LO:TX:a:t=P:problem:kreska pseudotaktowa	!	!
.	.	.	.	.	.	4f/	.	.	4d\	.	.
=101	=101	=101	=101	=101	=101	=101	=101	=101	=101	=101	=101
.	.	.	.	.	.	0g\;;	-ia	.	0e\;;	-ia	.
*	*	*	*	*	*	*	*Xij	*	*	*	*
==	==	==	==	==	==	==	==	==	==	==	==
*-	*-	*-	*-	*-	*-	*-	*-	*-	*-	*-	*-
!!!system-decoration: [(s1,s2,s3,s4)]
!!!RDF**kern: > = above
!!!RDF**kern: < = below
!!!EED: Leszek Kubiak
!!!EST: 2021-04-06
!!!ENC: Marcin Jachim
!!!END: 2021-03-26
